X: 99
T: Lemonville Jig
S: from Willy Taylor, originally from Canada
M: 6/8
R: two-step
L: 1/8
Z: Noel Jackson
K: D
f2g | aba afd | fgf fdA | ded dAF | G3 e2 f | gag gec | efe e2d | cBA gfe | f3 f2g |
| aba afd | fgf fdA | ded def | B3 e2 f | gag gec | efe e2d | cBA gfe | d3 dAG |
| FGA ABc | dec def | gag gfe | B2e e2d | cea aed | cea aed | cea gfe | fdB A2 g|
| FGA ABc | de c def | gag gfe | B2e e2d | cea aed | cea aed | cea gfe | d3 ||
